X: 19384
T: Jackdaw Chased The Mouse But Failed To Catch It, The
R: reel
M: 4/4
K: Bminor
|:B2fe fBBc|dBed cAAc|B2fe fBBA|1 FBdB cAec:|2 FBdB cdef||
|:gddg fddf|efdc dB~B2|gddg fddf|1 efdc B2ef:|2 adgd fedc||

